!!!!SEGMENT: pl-kk--kk-i-10--018-003_leszczynski-wladyslaw--missa-per-octavas-patrem.krn
!!!cenid: 16xx:1276
!!!COM: Leszczyński, Władysław
!!!COM-rismid: pe30025416
!!!CDT: 1616-1680
!!!CNT: Polish
!!!OPR: Missa per octavas
!!!OTL: Patrem
!!!OMV: 003
!!!PDT:
!!!AGN: Sacred; Mass
!!!SMS-siglum: PL-Kk
!!!SMS-shelfmark: Kk.I.10
!!!SMS-shelfwork: 018-003 M
!!!SMS-variant:
!!!SMS-altvar:
!!!NIFC-rismid: 1001153984
!!!URL-scan: http://repozytorium.nifc.pl/skany/pl-kk-nut--i-10
!!!ONB-nifc: UWAGA: Części Mszy: 1. Kyrie, 2. Et in terra, 3. Patrem, 4. Sanctus, 5. Agnus Dei. S (skan 0030-0033), T (0078-0082), B (0129-0132).
**kern	**text	**kern	**text	**kern	**text
*part3	*part3	*part2	*part2	*part1	*part1
*staff3	*staff3	*staff2	*staff2	*staff1	*staff1
*I"Bassus.	*	*I"Tenor	*	*I"[Soprano]	*
*I'B	*	*I'T	*	*I'[S]	*
*clefF4	*	*clefC4	*	*clefC1	*
*k[]	*	*k[]	*	*k[]	*
*M2/1	*	*M2/1	*	*M2/1	*
*met(C)	*	*met(C)	*	*met(C)	*
=1-	=1-	=1-	=1-	=1-	=1-
1AA	Pa-	0r	.	0a	Pa-
2C/	-trem	.	.	.	.
2D/	O-	.	.	.	.
=2-	=2-	=2-	=2-	=2-	=2-
2D/	-mni-	0A	Pa-	0a	-trem
2C/	-po-	.	.	.	.
*2\right	*	*	*	*	*
2F\	-ten-	.	.	.	.
4D\	.	.	.	.	.
4E\	.	.	.	.	.
=3-	=3-	=3-	=3-	=3-	=3-
4F\	.	0A	-trem	2re	.
4G\	.	.	.	.	.
2A\	.	.	.	2e/	O-
1D	.	.	.	2.f/	-mni-
.	.	.	.	4g/	.
=4-	=4-	=4-	=4-	=4-	=4-
1AA	-tem	2rD	.	2a/	-po-
.	.	2E/	O-	2c#X/	-ten-
1rD	.	2.F/	-mni-	1d	-tem
.	.	4G/	.	.	.
=5-	=5-	=5-	=5-	=5-	=5-
2r	.	2A/	-po-	1rg	.
2A\	fa-	2C#X/	-ten-	.	.
2F\	-cto-	1D	-tem	2r	.
*	*	*	*	*2\right	*
2D/	-rem	.	.	2dd\	fa-
=6-	=6-	=6-	=6-	=6-	=6-
1A	Cae-	2r	.	2cc\	-cto-
*	*	*2\right	*	*	*
.	.	2c\	fa-	2a\	-rem
1G	-li	2B\	-cto-	2dd\	Cae-
.	.	2G/	-rem	2.ee\	.
=7-	=7-	=7-	=7-	=7-	=7-
1E	et	2B\	Cae-	.	.
.	.	.	.	4dd\	.
.	.	1c	-li	4cc\	.
.	.	.	.	4b\	.
2F\	ter-	.	.	4a\	.
.	.	.	.	4b\	-li
2D/	.	4d\	et	1a\	et
.	.	4c\	.	.	.
=8-	=8-	=8-	=8-	=8-	=8-
1E	.	4B\	.	.	.
.	.	4A\	.	.	.
.	.	2B\	ter-	2g/	ter-
!LO:LB:g=original	!	!	!	!	!
0AA	-rae	1A	-rae	0a	-rae
=9-	=9-	=9-	=9-	=9-	=9-
.	.	2r	.	.	.
.	.	1A	Vi-	.	.
!	!	!	!	!LO:PB:g=original	!
00r	.	.	.	2r	.
.	.	2A\	-ſi-	1a\	Vi-
!	!	!LO:LB:g=original	!	!	!
=10-	=10-	=10-	=10-	=10-	=10-
.	.	2.c\	-bi-	.	.
.	.	.	.	2a\	-ſi-
.	.	4c\	-li-	.	.
.	.	1F	-um	2.cc\	-bi-
.	.	.	.	4cc\	-li-
=11-	=11-	=11-	=11-	=11-	=11-
*	*	*lig	*	*	*
.	.	1F	O-	2a\	-um
.	.	.	.	4dd\	O-
.	.	.	.	4cc\	.
1rD	.	2.G/	.	2.b-X\	.
*	*	*Xlig	*	*	*
.	.	4G/	-mni-	4b-\	-mni-
=12-	=12-	=12-	=12-	=12-	=12-
2r	.	1A	-um	0a	-um
1A	Et	.	.	.	.
.	.	2r	.	.	.
2F#X\	in-	1d\	Et	.	.
=13-	=13-	=13-	=13-	=13-	=13-
1G	-Vi-	.	.	00r	.
.	.	2B\	in-	.	.
1C	-ſi-	2.c\	-Vi-	.	.
.	.	4A\	-ſi-	.	.
=14-	=14-	=14-	=14-	=14-	=14-
*lig	*	*	*	*	*
1D	-bi-	4B\	-bi-	.	.
.	.	4A\	.	.	.
.	.	1A	.	.	.
2.E\	.	.	.	.	.
.	.	2G#X/	-li-	.	.
*Xlig	*	*	*	*	*
4E\	-li-	.	.	.	.
=15-	=15-	=15-	=15-	=15-	=15-
2AA/	-um	2A\	-um	2r	.
1AA	Et	1c#X	Et	1a	Et
2AA/	in	2c#\	in	2a\	in
=16-	=16-	=16-	=16-	=16-	=16-
2D/	V-	2d\	V-	2a\	V-
2BB-y/	-num	2d\	-num	2b-X\	-num
2.C/	Do-	2.cny\	Do-	2.g/	Do-
4C/	-mi-	4c\	-mi-	4g/	-mi-
=17-	=17-	=17-	=17-	=17-	=17-
2FF/	-num	1c	-num	1a	-num
1Fny	Je-	.	.	.	.
.	.	1r	.	1a	Je-
2C#X/	-ſum	.	.	.	.
=18-	=18-	=18-	=18-	=18-	=18-
2.D/	Chri-	2r	.	2a\	-ſum
.	.	2.d\	Fi-	1a	Chri-
4Cny/	.	.	.	.	.
1BB-y	.	.	.	.	.
.	.	4d\	-li-	.	.
.	.	2d\	-um	2g/	.
!	!	!LO:LB:g=original	!	!LO:LB:g=original	!
=19-	=19-	=19-	=19-	=19-	=19-
1AA	-ſtum	2c#y\	DE-	0a	-ſtum
.	.	2A\	-i	.	.
00r	.	2cny\	V-	.	.
.	.	2d\	-ni-	.	.
=20-	=20-	=20-	=20-	=20-	=20-
.	.	4e\	-ge-	2r	.
.	.	4d\	.	.	.
.	.	4c\	.	2.a\	Fi-
.	.	4B\	.	.	.
.	.	4A/	.	.	.
.	.	4Gny/	.	4a\	-li-
.	.	2F/	.	2a\	-um
=21-	=21-	=21-	=21-	=21-	=21-
.	.	2G/	.	2g/	DE-
.	.	2A/	.	2e/	-i
0r	.	4E/	.	2g/	V-
.	.	4F/	.	.	.
.	.	2G/	.	2f/	-ni-
=22-	=22-	=22-	=22-	=22-	=22-
.	.	2.A/	.	2.e/	-ge-
.	.	4A/	-ni-	4e/	-ni-
!LO:LB:g=original	!	!	!	!	!
2r	.	2D/	-tum	1f#X	-tum
2D/	Et	2F#X/	Et	.	.
=23-	=23-	=23-	=23-	=23-	=23-
2BBny/	ex	2D/	ex	2dd\	et
1E	Pa-	1G	Pa-	2bny\	ex
.	.	.	.	1.ee	Pa-
2C/	-tre	2E/	-tre	.	.
=24-	=24-	=24-	=24-	=24-	=24-
4E\	Na-	4G/	Na-	.	.
4F#y\	.	4A/	.	.	.
1G	.	4B/	.	2dd\	-tre
.	.	4G/	.	.	.
.	.	1A	-tum	1cc	Na-
2F#X\	.	.	.	.	.
=25-	=25-	=25-	=25-	=25-	=25-
0G	-tum	1rA	.	1b	-tum
.	.	2.G/	an-	1rg	.
.	.	4G/	-te	.	.
!	!	!LO:LB:g=original	!	!	!
=26-	=26-	=26-	=26-	=26-	=26-
0r	.	2A/	O-	2.e/	an-
.	.	4G/	-mni-	.	.
.	.	4A/	-a	4e/	-te
.	.	1D	Sae-	2fny/	o-
.	.	.	.	4f/	-mni-
.	.	.	.	4d/	-a
!	!	!	!	!LO:LB:g=original	!
=27-	=27-	=27-	=27-	=27-	=27-
2r	.	2.d\	.	4f/	Sae-
.	.	.	.	4g/	.
2D\	DE-	.	.	1a	.
.	.	4c\	.	.	.
2E\	-um	2.B\	.	.	.
2E\	de	.	.	2g#X/	-cu-
.	.	4B\	cu-	.	.
=28-	=28-	=28-	=28-	=28-	=28-
2.Fny\	DE-	1A	-la	0a	-la
4E\	-o	.	.	.	.
1D	lu-	1rA	.	.	.
=29-	=29-	=29-	=29-	=29-	=29-
2C/	-men	2rF	.	0r	.
2E\	de	2G/	DE-	.	.
2.D/	lu-	2A\	-um	.	.
.	.	2A\	de	.	.
4D/	-mi-	.	.	.	.
=30-	=30-	=30-	=30-	=30-	=30-
1GG	-ne	2B\	DE-	1r	.
.	.	4G/	-o	.	.
.	.	4d\	lu-	.	.
0rC	.	2d\	-men	1.a	DE-
.	.	2c\	de	.	.
=31-	=31-	=31-	=31-	=31-	=31-
.	.	2.d\	lu-	.	.
.	.	.	.	2a\	-um
.	.	4c\	-mi-	.	.
1.GG	DE-	1B	-ne	2dd\	Ve-
.	.	.	.	2b\	-rum
=32-	=32-	=32-	=32-	=32-	=32-
.	.	1G	DE-	4dd\	de
.	.	.	.	4cc\	.
2GG/	-um	.	.	4b\	.
.	.	.	.	4a\	.
2C/	Ve-	2G/	-um	2gny\	.
2AA/	-rum	2c\	Ve-	1a\	.
!LO:LB:g=original	!	!	!	!	!
=33-	=33-	=33-	=33-	=33-	=33-
2D/	de	2A/	-rum	.	.
1D	DE-	2d\	de	2.b\	DE-
.	.	2d\	DE-	.	.
.	.	.	.	4a\	-o
2F\	-o	2A\	-o	1a\	Ve-
=34-	=34-	=34-	=34-	=34-	=34-
0E	Ve-	2c\	Ve-	.	.
.	.	4B\	.	4g#X/	.
.	.	4A\	.	4f#X/	.
!	!	!LO:LB:g=original	!	!	!
.	.	1B	-ro	1g#X	.
=35-	=35-	=35-	=35-	=35-	=35-
1AA	-ro	2r	.	1a	-ro
.	.	2.A\	Ge-	.	.
2r	.	.	.	00r	.
.	.	4c\	-ni-	.	.
2.E\	Ge-	4B\	-tum	.	.
.	.	4G/	Non	.	.
=36-	=36-	=36-	=36-	=36-	=36-
.	.	2B\	fa-	.	.
4G\	-ni-	.	.	.	.
4F\	-tum	2A/	-ctum	.	.
4D\	Non	.	.	.	.
2F\	fa-	4A/	Con-	.	.
.	.	4c\	-ſub-	.	.
2G\	-ctum	4c\	-ſtan-	.	.
.	.	4B\	-ti-	.	.
=37-	=37-	=37-	=37-	=37-	=37-
4F\	Con-	4A\	-a-	.	.
4D\	-ſub-	4B\	.	.	.
4A\	-ſtan-	4c\	.	.	.
4A\	-ti-	4A\	.	.	.
4F\	-a-	4B\	.	0rg	.
4E\	.	4c\	.	.	.
4D\	.	4d\	.	.	.
4G\	.	4B\	.	.	.
=38-	=38-	=38-	=38-	=38-	=38-
4E\	.	4c\	.	.	.
4D\	.	4d\	.	.	.
4C/	-lem	4e\	.	.	.
4BB/	.	4d\	.	.	.
!	!	!	!	!LO:LB:g=original	!
2C/	Pa-	2e\	.	2r	.
2D/	.	2d\	-lem	4a\	per
.	.	.	.	4a\	quem
=39-	=39-	=39-	=39-	=39-	=39-
1AA	-tri	2c\	Pa-	2.a\	o-
.	.	2A/	.	.	.
.	.	.	.	4b\	.
2rGG	.	1A	-tri	2cc\	-mni-
4AA/	per	.	.	4cc\	-a
4AA/	quem	.	.	4cc\	o-
=40-	=40-	=40-	=40-	=40-	=40-
2.AA/	o-	1rA	.	2.cc\	-mni-
4BB/	-mni-	.	.	4dd\	.
!LO:PB:g=original	!	!	!	!	!
1.C	-a	2rF	.	1.ee	-a
.	.	4G/	per	.	.
.	.	4G/	quem	.	.
=41-	=41-	=41-	=41-	=41-	=41-
.	.	2.G/	o-	.	.
*	*ij	*	*	*	*
4GG/	per	.	.	1ee	fa-
4GG/	quem	4A/	-mni-	.	.
!	!	!LO:PB:g=original	!	!	!
4GG/	o-	(4B\	-a	.	.
4AA/	-mni-	4c\)	.	.	.
2BB-X/	-a	1d\	fa-	4dd\	.
.	.	.	.	4ee\	.
*	*Xij	*	*	*	*
=42-	=42-	=42-	=42-	=42-	=42-
1.AA	fa-	.	.	2ff\	.
.	.	4c#X\	.	4ee\	.
.	.	4B\	.	4dd\	.
.	.	2.c#X\	.	2.ee\	.
2AA/	-cta	.	.	.	.
.	.	4c#\	-cta	4ee\	-cta
=43-	=43-	=43-	=43-	=43-	=43-
0D	Sunt	1d	Sunt	0dd	Sunt
.	.	2r	.	.	.
.	.	2A\	Qui	.	.
=44-	=44-	=44-	=44-	=44-	=44-
0rD	.	2.d\	pro-	2rb	.
.	.	.	.	2a\	Qui
.	.	4d\	-pter	.	.
.	.	1B	Nos	2.dd\	pro-
.	.	.	.	4dd\	-pter
=45-	=45-	=45-	=45-	=45-	=45-
1rD	.	2.e\	ho-	1b	Nos
.	.	4e\	-mi-	.	.
2rBB	.	4cny\	-nes	2.ee\	ho-
.	.	4c\	et	.	.
2C/	Qui	4B\	pro-	.	.
.	.	4c\	-pter	4ee\	-mi-
!	!	!	!	!LO:LB:g=original	!
=46-	=46-	=46-	=46-	=46-	=46-
2.F\	pro-	2A/	No-	4cc\	-nes
.	.	.	.	4cc\	et
.	.	4A/	-ſtram	4b\	pro-
4F\	-pter	4A/	Sa-	4cc\	-pter
1D	Nos	1d	-lu-	2dd\	No-
.	.	.	.	4dd\	-ſtram
.	.	.	.	4a\	Sa-
=47-	=47-	=47-	=47-	=47-	=47-
2.G\	ho-	2B,<\	-tem	2b\	-lu-
.	.	4r	.	2b\	-tem
4G\	-mi-	4B\	de-	.	.
4E\	-nes	2e\	-ſcen-	2rb	.
4E\	et	.	.	.	.
4D\	pro-	4B\	-dit	4rb	.
*	*	*	*ij	*	*
4E\	-pter	4B\	de-	4b\	de-
=48-	=48-	=48-	=48-	=48-	=48-
2C/	No-	2c\	-ſcen-	2ee\	-ſcen-
!	!	!LO:LB:g=original	!	!	!
4BBny/	-ſtram	4G/	-dit	2b\	-dit
*	*	*	*Xij	*	*
4C/	Sa-	4G/	de-	.	.
2AA/	-lu-	2A/	-ſcen-	2rb	.
4AA/	-tem	4A/	-dit	4rb	.
*	*	*	*ij	*	*ij
4AA/	de-	4A/	de-	4cc\	de-
!LO:LB:g=original	!	!	!	!	!
=49-	=49-	=49-	=49-	=49-	=49-
2D/	-ſcen-	2A/	-ſcen-	2dd\	-ſcen-
4AA/	-dit	4A/	-dit	2cc\	-dit
*	*	*	*	*	*Xij
4AA/	de-	4c\	de-	.	.
2C/	-ſcen-	2e\	-ſcen-	4r	.
.	.	.	.	4gny\	de-
4GG/	-dit	4B\	-dit	2b\	-ſcen-
*	*	*	*Xij	*	*
4GG/	de	4B\	de	.	.
=50-	=50-	=50-	=50-	=50-	=50-
0AA	Cae-	2c#X\	Cae-	2a\	-dit
.	.	1d	.	2a\	de
.	.	.	.	1a	Cae-
.	.	2c#X\	.	.	.
=51-	=51-	=51-	=51-	=51-	=51-
0Dl	-lis	0dl	-lis	0al	-lis
!	!	!	!	!LO:LB:g=original	!
=52||	=52||	=52||	=52||	=52||	=52||
*M2/1	*	*M2/1	*	*M2/1	*
*met(C)	*	*met(C)	*	*met(C)	*
0rD	.	0D	Et	1d	Et
.	.	.	.	1.a	In-
=53-	=53-	=53-	=53-	=53-	=53-
0AA	Et	1.A	in-	.	.
.	.	.	.	2cc\	-car-
.	.	.	.	4cc\	-na-
.	.	.	.	4b\	.
.	.	2c\	-car-	4a\	.
.	.	.	.	4g\	.
=54-	=54-	=54-	=54-	=54-	=54-
1.D	in-	2.A/	-na-	4f/	.
.	.	.	.	4g/	.
.	.	.	.	2a\	.
.	.	4G/	.	.	.
.	.	4F/	.	4b\	.
.	.	4G/	.	4cc#X\	.
2F\	-car-	1A\	.	1dd\	.
=55-	=55-	=55-	=55-	=55-	=55-
1.D	-na-	.	.	.	.
*	*	*lig	*	*	*
.	.	1d	.	4a\	.
.	.	.	.	4g\	.
.	.	.	.	4f\	.
.	.	.	.	4g\	.
2D\	-tus	1c\	.	1a\	.
*	*	*Xlig	*	*	*
=56-	=56-	=56-	=56-	=56-	=56-
0E	eſt	.	.	.	.
!	!	!LO:LB:g=original	!	!	!
.	.	4B\	.	4g/	-tus
.	.	4A\	.	4f/	.
.	.	2.B\	.	1g	eſt
.	.	4B\	-tus	.	.
=57-	=57-	=57-	=57-	=57-	=57-
0r	.	1A	eſt	2r	.
.	.	.	.	2a\	de
.	.	0r	.	2.b\	Spi-
.	.	.	.	4a/	-ri-
=58-	=58-	=58-	=58-	=58-	=58-
2r	.	.	.	2g/	-tu
2G\	de	.	.	2f/	Sa[n-
2.A\	Spi-	2rc	.	1e	-cto]
.	.	2e\	de	.	.
4G\	-ri-	.	.	.	.
!	!	!	!	!LO:LB:g=original	!
=59-	=59-	=59-	=59-	=59-	=59-
2F\	-tu	2.f\	Spi-	2r	.
4D\	San-	.	.	1a	Ex
4E\	.	4e\	-ri-	.	.
4F\	.	2d\	-tu	.	.
4G\	.	.	.	.	.
!LO:LB:g=original	!	!	!	!	!
2A\	.	2c\	San-	2a\	Ma-
=60-	=60-	=60-	=60-	=60-	=60-
1E	-cto	1B	-cto	2a\	-ri-
.	.	.	.	2g/	-a
00r	.	00r	.	4a\	Vir-
.	.	.	.	4b\	.
.	.	.	.	4ccny\	.
.	.	.	.	4a\	.
=61-	=61-	=61-	=61-	=61-	=61-
.	.	.	.	4b\	.
.	.	.	.	4cc\	.
.	.	.	.	1dd	.
.	.	.	.	2cc\	-gi-
=62-	=62-	=62-	=62-	=62-	=62-
.	.	.	.	2b\	-ne
*	*	*	*	*	*ij
.	.	.	.	2.cc\	Vir-
1rD	.	2r	.	.	.
.	.	.	.	4b\	.
.	.	2A\	et	2a\	-gi-
=63-	=63-	=63-	=63-	=63-	=63-
2r	.	1c	Ho-	0g	-ne
*	*	*	*	*	*Xij
2E\	et	.	.	.	.
1G	Ho-	2G/	-mo	.	.
*	*	*	*ij	*	*
.	.	2B\	et	.	.
=64-	=64-	=64-	=64-	=64-	=64-
2D/	-mo	1.d	Ho-	1r	.
2F\	fa-	.	.	.	.
2G\	.	.	.	2r	.
2A\	.	2c\	-mo	2a\	et
*	*	*	*Xij	*	*
=65-	=65-	=65-	=65-	=65-	=65-
*lig	*	*	*	*	*
1D	.	4B\	fa-	2dd\	Ho-
.	.	4A\	.	.	.
.	.	1A	.	2cc\	-mo
2.E\	.	.	.	2.b\	fa-
.	.	2G#X/	-ctus	.	.
*Xlig	*	*	*	*	*
4E\	ctus	.	.	4b\	-ctus
=66-	=66-	=66-	=66-	=66-	=66-
0AAl	eſt	0Al	eſt	0cc#Xl	eſt
!	!	!LO:LB:g=original	!	!LO:PB:g=original	!
=67||	=67||	=67||	=67||	=67||	=67||
*M2/1	*	*M2/1	*	*M2/1	*
*met(C)	*	*met(C)	*	*met(c)	*
!	!	!LO:TX:a:t=a 3	!	!LO:TX:a:t=Crucifixus\nTacet	!
0r	.	1rA	.	0ryy	.
.	.	1.A	Cru-	.	.
=68-	=68-	=68-	=68-	=68-	=68-
1r	.	.	.	0ryy	.
.	.	2A\	-ci-	.	.
1.E	Cru-	1c	-fi-	.	.
=69-	=69-	=69-	=69-	=69-	=69-
.	.	2B\	-xus	0ryy	.
2E\	-ci-	2.e\	e-	.	.
1F	-fi-	.	.	.	.
.	.	4d\	-ti-	.	.
.	.	4c\	-am	.	.
.	.	4B\	pro	.	.
=70-	=70-	=70-	=70-	=70-	=70-
1E	-xus	2c\	No-	0ryy	.
.	.	4B\	.	.	.
.	.	4G/	.	.	.
2.A\	E-	2.c\	.	.	.
4G\	-ti-	4B\	.	.	.
=71-	=71-	=71-	=71-	=71-	=71-
4F\	-am	1c	-bis	0ryy	.
4E\	pro	.	.	.	.
1F	No-	.	.	.	.
.	.	2c\	Sub	.	.
!LO:LB:g=original	!	!	!	!	!
2D\	.	4d\	pon-	.	.
.	.	4c\	-ti-	.	.
=72-	=72-	=72-	=72-	=72-	=72-
2.E\	.	2B\	-o	0ryy	.
.	.	1c	Pi-	.	.
4F\	.	.	.	.	.
2G,<\	-bis	.	.	.	.
2D\	Sub	2.B\	-la-	.	.
=73-	=73-	=73-	=73-	=73-	=73-
2F\	Pon-	.	.	0ryy	.
.	.	4A/	.	.	.
2C/	-ti-	2.A/	.	.	.
2E\	-o	.	.	.	.
.	.	8G/L	.	.	.
.	.	8F/J	.	.	.
2BB/	Pi-	1G/	.	.	.
=74-	=74-	=74-	=74-	=74-	=74-
2C#X/	-la-	.	.	0ryy	.
2D/	-to	2F/	-to	.	.
1GG	Pi-	1B-X	paſ-	.	.
!	!	!LO:LB:g=original	!	!	!
=75-	=75-	=75-	=75-	=75-	=75-
1D	-la-	2A/	-sus	0ryy	.
.	.	1d	paſ-	.	.
1GG	-to	.	.	.	.
.	.	2Bny\	-sus	.	.
=76-	=76-	=76-	=76-	=76-	=76-
*	*	*	*ij	*	*
2rBB	.	1.c	paſ-	0ryy	.
1Cny	paſ-	.	.	.	.
2AA/	-sus	2c\	-sus	.	.
*	*	*	*Xij	*	*
=77-	=77-	=77-	=77-	=77-	=77-
*	*ij	*	*	*	*
2D/	paſ-	2d\	et	0ryy	.
2GG/	-sus	4c\	Se-	.	.
*	*Xij	*	*	*	*
.	.	4B\	.	.	.
2AA/	et	2c#X\	.	.	.
2BB-X/	Se-	1d\	-pul-	.	.
=78-	=78-	=78-	=78-	=78-	=78-
1.AA	-pul-	.	.	0ryy	.
.	.	4c#X\	.	.	.
.	.	4B\	.	.	.
.	.	2.c#X\	.	.	.
2AA/	-tus	.	.	.	.
.	.	4c#\	-tus	.	.
=79-	=79-	=79-	=79-	=79-	=79-
0Dl	eſt	0dl	eſt	0ryy	.
!LO:LB:g=original	!	!	!	!	!
=80||	=80||	=80||	=80||	=80||	=80||
*M2/1	*	*M2/1	*	*M2/1	*
*met(C)	*	*met(C)	*	*met(C)	*
!	!	!LO:TX:b:t=Et reſurrexit	!	!	!
1A	Et	00r	.	00r	.
2F\	re-	.	.	.	.
2D/	-ſur-	.	.	.	.
=81-	=81-	=81-	=81-	=81-	=81-
2G\	-re-	.	.	.	.
2A\	-xit	.	.	.	.
2.D/	ter-	.	.	.	.
4E\	.	.	.	.	.
=82-	=82-	=82-	=82-	=82-	=82-
4F\	.	00r	.	2r	.
4G\	.	.	.	.	.
2A\	.	.	.	2e/	Et
2G\	-ti-	.	.	2g\	re-
2F\	-a	.	.	2a\	-ſur-
=83-	=83-	=83-	=83-	=83-	=83-
2.E\	.	.	.	2a\	-re-
.	.	.	.	2g\	-xit
4D/	.	.	.	.	.
2C/	.	.	.	2.cc\	ter-
4AA/	.	.	.	.	.
4BB/	.	.	.	4b\	-ti-
=84-	=84-	=84-	=84-	=84-	=84-
4C/	.	1r	.	2a\	-a
4D/	.	.	.	.	.
2E\	.	.	.	2g#X/	di-
1F	di-	2r	.	1.a	-e
.	.	2d\	Se-	.	.
=85-	=85-	=85-	=85-	=85-	=85-
1C	-e	2c\	-cun-	.	.
.	.	2B\	-dum	2gny/	Se-
0rD	.	2.A\	Scri-	2f/	-cun-
.	.	.	.	2e/	-dum
.	.	4B\	.	.	.
=86-	=86-	=86-	=86-	=86-	=86-
.	.	2c\	.	2e/	Scri-
.	.	2B-X\	-ptu-	2d/	-ptu-
1AA	Et	1A	-ras	1a	-ras
!	!	!LO:LB:g=original	!	!	!
=87-	=87-	=87-	=87-	=87-	=87-
1BB	a-	2rF	.	1r	.
.	.	1G	et	.	.
!	!	!	!	!LO:LB:g=original	!
1C	-ſcen-	.	.	2re	.
.	.	1A\	a-	2e/	Et
!LO:LB:g=original	!	!	!	!	!
=88-	=88-	=88-	=88-	=88-	=88-
1D	-dit	.	.	1f	a-
.	.	1Bny	-ſcen-	.	.
1E	in	.	.	1g	-ſcen-
.	.	1c\	-dit	.	.
=89-	=89-	=89-	=89-	=89-	=89-
1F	Cae-	.	.	2a\	-dit
.	.	2d\	in	1b	in
1E	-lum	1e	Cae-	.	.
.	.	.	.	2cc\	Cae-
=90-	=90-	=90-	=90-	=90-	=90-
*	*	*	*	*lig	*
2r	.	1d	-lum	1dd	.
2G\	Se-	.	.	.	.
2E\	-det	2r	.	1ee	.
2C/	ad	2c\	Se-	.	.
*	*	*	*	*Xlig	*
=91-	=91-	=91-	=91-	=91-	=91-
2.G\	dex-	2B\	-det	1dd	lum
.	.	2G/	ad	.	.
4F\	-te-	.	.	.	.
2E\	-ram	2.c\	dex-	0rb	.
4A\	Pa-	.	.	.	.
4G\	.	4B\	-te-	.	.
=92-	=92-	=92-	=92-	=92-	=92-
4F\	.	2A/	-ram	.	.
4E\	.	.	.	.	.
2F\	.	1c	Pa-	.	.
0G	.	.	.	2r	.
.	.	4B\	.	2g/	Et
.	.	4A\	.	.	.
=93-	=93-	=93-	=93-	=93-	=93-
.	.	1B	.	2.dd\	i-
.	.	.	.	4dd\	-te-
0C	-tris	2c\	-tris	2a\	-rum
.	.	2A/	et	2cc\	Ven-
=94-	=94-	=94-	=94-	=94-	=94-
.	.	2.c\	i-	2.g/	-tu-
.	.	4c\	-te-	4e/	-rus
00r	.	2F/	-rum	2a\	eſt
.	.	2A/	ven-	2cc\	Cum
=95-	=95-	=95-	=95-	=95-	=95-
.	.	2G/	-tu-	2b\	glo-
.	.	2F/	-rus	2dd\	.
.	.	2E/	eſt	2cc\	.
.	.	2G/	cum	1b\	.
=96-	=96-	=96-	=96-	=96-	=96-
.	.	2.D/	glo-	.	.
.	.	.	.	4a\	.
.	.	4D/	-ri-	4b\	-ri-
!	!	!LO:LB:g=original	!	!	!
2rBB	.	1E	-a	1cc	-a
1C/	iu-	.	.	.	.
!	!	!	!	!LO:LB:g=original	!
=97-	=97-	=97-	=97-	=97-	=97-
.	.	0rA	.	2r	.
2BB/	-di-	.	.	1g	iu-
2C/	-ca-	.	.	.	.
2AA/	-re	.	.	2f/	-di-
=98-	=98-	=98-	=98-	=98-	=98-
1F	Vi-	1rA	.	1a	-ca-
2F\	-vos	2r	.	2a\	-re
2C/	et	1c\	iu-	2cc\	Vi-
=99-	=99-	=99-	=99-	=99-	=99-
2.D/	Mor-	.	.	2a\	-vos
.	.	2B\	-di-	2.b\	et
4D/	-tu-	.	.	.	.
!LO:LB:g=original	!	!	!	!	!
0AA	-os	1e	-ca-	.	.
.	.	.	.	8a\L	.
.	.	.	.	8g\J	.
.	.	.	.	2.a\	Mor-
=100-	=100-	=100-	=100-	=100-	=100-
.	.	1c	-re	.	.
.	.	.	.	4b\	.
.	.	.	.	1cc	.
2rBB	.	1G	Vi-	.	.
2E\	Cu-	.	.	2b\	-tu-
=101-	=101-	=101-	=101-	=101-	=101-
1C#X	-ius	1A	-vos	2a\	-os
.	.	.	.	1ee	Cu-
1AA	re-	1A	et	.	.
.	.	.	.	2cc#y\	-ius
=102-	=102-	=102-	=102-	=102-	=102-
1D	-gni	2.A/	Mor-	2a\	re-
.	.	.	.	1dd	-gni
.	.	4A/	-tu-	.	.
1BB	Non	1D	-os	.	.
.	.	.	.	1b\	Non
=103-	=103-	=103-	=103-	=103-	=103-
1GG	e-	1rA	.	.	.
.	.	.	.	1ee	E-
1Cny	-rit	2r	.	.	.
.	.	1c\	Cu-	2cc\	-rit
=104-	=104-	=104-	=104-	=104-	=104-
1F	Non	.	.	1a	Non
.	.	1A,<	-ius	.	.
1D	e-	.	.	1dd	e-
.	.	2F#X/	Re-	.	.
=105-	=105-	=105-	=105-	=105-	=105-
1G	-rit	1.B	-gni	2dd\	-rit
*	*ij	*	*	*	*ij
.	.	.	.	2b\	Non
1.E	Non	.	.	2ee\	e-
.	.	2G/	Non	2b\	-rit
!	!	!	!	!LO:LB:g=original	!
=106-	=106-	=106-	=106-	=106-	=106-
.	.	1c	e-	2g/	Non
2C/	e-	.	.	1cc	e-
1F	-rit	2A\	-rit	.	.
.	.	2c\	Non	2a\	-rit
*	*Xij	*	*	*	*Xij
=107-	=107-	=107-	=107-	=107-	=107-
*lig	*	*	*	*	*
0C	fi-	2.e\	e-	1r	.
.	.	4d\	.	.	.
.	.	4c\	.	2g\	Non
.	.	4B\	.	.	.
.	.	1c\	.	2a\	e-
=108-	=108-	=108-	=108-	=108-	=108-
0D	.	.	.	2f#X/	-rit
.	.	2B\	-rit	1g	fi-
!	!	!LO:LB:g=original	!	!	!
.	.	1A	fi-	.	.
.	.	.	.	2f#X/	.
*Xlig	*	*	*	*	*
=109-	=109-	=109-	=109-	=109-	=109-
0GG;	-nis	0B	-nis	0g	-nis
=110-	=110-	=110-	=110-	=110-	=110-
2r	.	2r	.	2r	.
1E	Et	1e	Et	1b	Et
2E\	in	2e\	in	2b\	in
=111-	=111-	=111-	=111-	=111-	=111-
2.A\	Spi-	2.e\	Spi-	2.cc\	Spi-
4A\	-ri-	4e\	-ri-	4cc\	-ri-
2D/	-tum	2d\	-tum	2dd\	-tum
!LO:PB:g=original	!	!	!	!	!
1F\	San-	2c\	San-	2a\	San-
=112-	=112-	=112-	=112-	=112-	=112-
.	.	2d\	.	(2b\	-ctum
2C/	-ctum	2e\	-ctum	2cc\)	.
2.E\	Do-	2.e\	Do-	2.b\	Do-
4E\	-mi-	4e\	-mi-	4b\	-mi-
=113-	=113-	=113-	=113-	=113-	=113-
1E	-num	1B	-num	2b\	-num
.	.	.	.	2ee\	Et
00r	.	2r	.	2cc\	Vi-
.	.	2d\	Et	1a\	-vi-
=114-	=114-	=114-	=114-	=114-	=114-
.	.	1A	Vi-	.	.
.	.	.	.	2e/	-fi-
!	!	!	!	!LO:LB:g=original	!
.	.	2G/	-vi-	2.g/	-can-
.	.	2B\	-fi-	.	.
.	.	.	.	4fny/	.
=115-	=115-	=115-	=115-	=115-	=115-
.	.	1c	-can-	4e/	.
.	.	.	.	4f/	.
.	.	.	.	1g	.
1AA	qui	1A	-tem	.	.
.	.	.	.	2f#X/	.
=116-	=116-	=116-	=116-	=116-	=116-
2E\	ex	00r	.	1g	-tem
1G	Pa-	.	.	.	.
.	.	.	.	1rg	.
2F\	-tre	.	.	.	.
=117-	=117-	=117-	=117-	=117-	=117-
2.E\	Fi-	.	.	1g	Qui
4E\	-li-	.	.	.	.
1D	-o-	.	.	2b\	ex
.	.	.	.	1dd\	Pa-
=118-	=118-	=118-	=118-	=118-	=118-
1AA	-q(ue)	1A	Qui	.	.
.	.	.	.	2cc\	-tre
1rBB	.	2B\	ex	2.b\	Fi-
.	.	1d\	Pa-	.	.
.	.	.	.	4b\	-li-
=119-	=119-	=119-	=119-	=119-	=119-
2rBB	.	.	.	1a	-o-
2A\	pro-	2c\	-tre	.	.
!	!	!LO:LB:g=original	!	!	!
4G\	-ce-	2.B\	Fi-	1d	-q(ue)
4F\	.	.	.	.	.
4E\	.	.	.	.	.
4D\	.	4B\	-li-	.	.
=120-	=120-	=120-	=120-	=120-	=120-
2C/	.	1c	-o-	2re	.
2AA/	-dit	.	.	2cc\	pro-
1rD	.	1G	-q(ue)	4b\	-ce-
.	.	.	.	4a\	.
.	.	.	.	4g/	.
.	.	.	.	4fny/	.
=121-	=121-	=121-	=121-	=121-	=121-
2r	.	2r	.	2e/	.
2A\	pro-	2c\	pro-	2c/	-dit
4G\	-ce-	4B\	-ce-	1re	.
4F\	.	4A\	.	.	.
4E\	.	4G/	.	.	.
4D\	.	4Fny/	.	.	.
!LO:LB:g=original	!	!	!	!	!
=122-	=122-	=122-	=122-	=122-	=122-
1C	-dit	2E/	.	2re	.
*	*	*	*	*	*ij
.	.	1A	dit	2ee\	pro-
1D	pro-	.	.	4dd\	-ce-
.	.	.	.	4cc\	.
*	*	*	*ij	*	*
.	.	2B\	pro-	4b\	.
.	.	.	.	4a\	.
!	!	!	!	!LO:LB:g=original	!
=123-	=123-	=123-	=123-	=123-	=123-
*	*ij	*	*	*	*
1E	ce-	2E/	-ce-	2g/	.
.	.	2e\	-dit	2e/	-dit
*lig	*	*	*	*	*Xij
1F	.	4d\	pro-	1rg	.
.	.	4c\	.	.	.
.	.	1c\	-ce-	.	.
=124-	=124-	=124-	=124-	=124-	=124-
1G	.	.	.	2r	.
.	.	2B\	-dit	2b\	Qui
*Xlig	*	*	*Xij	*	*
1C	-dit	2r	.	2g/	cum
.	.	2c\	Qui	1cc\	Pa-
*	*Xij	*	*	*	*
=125-	=125-	=125-	=125-	=125-	=125-
0r	.	2A\	cum	.	.
.	.	2d\	Pa-	2a\	-tre
.	.	2B\	-tre	2g\	et
.	.	2c\	et	2a\	.
=126-	=126-	=126-	=126-	=126-	=126-
1r	.	2A/	Fi-	2f#X/	Fi-
.	.	2G/	-li-	1g	.
2.D/	Si-	1A	-o	.	.
.	.	.	.	2f#X/	li-
4D/	-mul	.	.	.	.
=127-	=127-	=127-	=127-	=127-	=127-
2E\	a-	1rA	.	0g	-o
2BB/	-do-	.	.	.	.
!	!	!LO:LB:g=original	!	!	!
1C	-ra-	2.G/	Si-	.	.
.	.	4G/	-mul	.	.
=128-	=128-	=128-	=128-	=128-	=128-
*lig	*	*	*	*	*
1AA	-tur	2A/	a-	0r	.
.	.	2E/	-do-	.	.
1GG	.	1G	-ra-	.	.
*Xlig	*	*	*	*	*
=129-	=129-	=129-	=129-	=129-	=129-
*	*	*lig	*	*	*
1r	.	1D	-tur	2.a\	Si-
.	.	.	.	4a\	-mul
2r	.	1C	.	2cc\	a-
2E\	et	.	.	2g/	-do-
*	*	*Xlig	*	*	*
=130-	=130-	=130-	=130-	=130-	=130-
2F\	Con-	2r	.	1a	-ra-
2D/	-glo-	2B\	et	.	.
2E\	-ri-	2c\	Con-	1g	-tur
2C/	-fi-	2A/	-glo-	.	.
=131-	=131-	=131-	=131-	=131-	=131-
4E\	-ca-	2c\	-ri-	1r	.
4F#X\	.	.	.	.	.
1G	.	2G/	-fi-	.	.
.	.	1B	-ca-	2r	.
2F#X\	.	.	.	2a\	et
=132-	=132-	=132-	=132-	=132-	=132-
1G	-tur	1E	-tur	2b\	Con-
.	.	.	.	2g/	-glo-
!LO:LB:g=original	!	!	!	!	!
1r	.	2rF	.	2cc\	-ri-
.	.	1c\	Qui	2a\	-fi-
=133-	=133-	=133-	=133-	=133-	=133-
2r	.	.	.	1g	-ca-
1G	Qui	2B\	lo-	.	.
!	!	!	!	!LO:LB:g=original	!
.	.	2.A/	-cu-	2c/	-tur
2Fny\	lo-	.	.	1cc\	qui
.	.	4A/	-tus	.	.
=134-	=134-	=134-	=134-	=134-	=134-
2.E\	-cu-	1G	eſt	.	.
.	.	.	.	2b\	lo-
4E\	-tus	.	.	.	.
*lig	*	*	*	*	*
1F	eſt	1rA	.	2.a\	-cu-
.	.	.	.	4a\	-tus
=135-	=135-	=135-	=135-	=135-	=135-
1C	.	2r	.	0g	eſt
.	.	1c	per	.	.
*Xlig	*	*	*	*	*
0r	.	.	.	.	.
.	.	1B\	Pro-	.	.
=136-	=136-	=136-	=136-	=136-	=136-
.	.	.	.	2r	.
.	.	1c	-phae-	1g	per
2r	.	.	.	.	.
2D\	Et	2B\	.	2fny/	Pro-
=137-	=137-	=137-	=137-	=137-	=137-
2E\	V-	1c	-tas	1e	-phae-
2F\	-nam	.	.	.	.
!	!	!LO:LB:g=original	!	!	!
1G	San-	2rF	.	1d	-tas
.	.	2G/	et	.	.
=138-	=138-	=138-	=138-	=138-	=138-
1F	-ctam	1A	V-	1rg	.
1E	Ca-	2B\	-nam	2re	.
.	.	2c\	San-	2g\	Et
=139-	=139-	=139-	=139-	=139-	=139-
2.D/	-tho-	1d	-ctam	2a\	V-
.	.	.	.	2b\	-nam
4D/	-li-	.	.	.	.
1AA	-cam	1r	.	1cc	San-
=140-	=140-	=140-	=140-	=140-	=140-
1rD	.	2rc	.	2dd\	-ctam
.	.	2c\	San-	2ee\	Ca-
2r	.	2c\	-ctam	2.dd\	-tho-
2G\	San-	2B\	Ca-	.	.
.	.	.	.	4dd\	-li-
=141-	=141-	=141-	=141-	=141-	=141-
2G\	-ctam	2.d\	-tho-	1dd	-cam
2F#X\	Ca-	.	.	.	.
.	.	4d\	-li-	.	.
2.A\	-tho-	1A	-cam	2rb	.
.	.	.	.	2cc\	et
4A\	-li-	.	.	.	.
=142-	=142-	=142-	=142-	=142-	=142-
1.E	-cam	1r	.	2cc\	A-
.	.	.	.	2b\	-po-
!	!	!	!	!LO:PB:g=original	!
.	.	2r	.	2.ee\	-sto-
*	*	*	*ij	*	*
2C/	Ca-	2c\	San-	.	.
.	.	.	.	4ee\	-li-
!LO:LB:g=original	!	!	!	!	!
=143-	=143-	=143-	=143-	=143-	=143-
2.G\	-tho-	2d\	-ctam	2b\	-cam
.	.	2e\	Ca-	2cc\	Ec-
4G\	-li-	.	.	.	.
1GG	-cam	2.d\	-tho-	2.dd\	-cle-
.	.	4d\	-li-	4dd\	-ſi-
=144-	=144-	=144-	=144-	=144-	=144-
00rD	.	2A/	-cam	2ee\	-am
*	*	*	*Xij	*	*
.	.	2c\	et	2ee\	et
.	.	2A/	A-	2cc\	A-
.	.	2E/	-po-	2g/	-po-
=145-	=145-	=145-	=145-	=145-	=145-
.	.	2.F/	-ſto-	2.a\	-ſto-
.	.	4G/	-li-	4b\	-li-
.	.	2A\	-cam	2cc\	-cam
.	.	2B\	Ec-	1dd\	Ec-
!	!	!LO:LB:g=original	!	!	!
=146-	=146-	=146-	=146-	=146-	=146-
*	*	*lig	*	*	*
1rBB	.	1c	-cle-	.	.
.	.	.	.	2.cc\	-cle-
1D	Con-	2.d\	.	.	.
.	.	.	.	4cc\	-ſi-
.	.	.	.	2b\	-am
*	*	*Xlig	*	*	*
.	.	4d\	-ſi-	.	.
=147-	=147-	=147-	=147-	=147-	=147-
2.A\	-fi-	0c	-am	0r	.
4A\	-te-	.	.	.	.
2E\	-or	.	.	.	.
2Fny\	V-	.	.	.	.
=148-	=148-	=148-	=148-	=148-	=148-
2D/	-num	0r	.	1r	.
2AA/	ba-	.	.	.	.
1C	-pti-	.	.	1g	Con-
=149-	=149-	=149-	=149-	=149-	=149-
1GG	-zma	1B	Con-	2.b\	-fi-
.	.	.	.	4b\	-te-
0rC	.	2.d\	-fi-	2a\	-or
.	.	.	.	2dd\	V-
.	.	4d\	-te-	.	.
=150-	=150-	=150-	=150-	=150-	=150-
.	.	2A/	-or	2cc\	-num
.	.	2c\	V-	2a\	ba-
!	!	!	!	!LO:LB:g=original	!
1rD	.	2A/	-num	1cc	-pti-
.	.	2E/	ba-	.	.
=151-	=151-	=151-	=151-	=151-	=151-
2r	.	1G	-pti-	1g	-zma
1G	In	.	.	.	.
.	.	1D	-zma	2r	.
2F\	re-	.	.	1dd\	in
=152-	=152-	=152-	=152-	=152-	=152-
2F\	-miſ-	1G	in	.	.
2E\	-si-	.	.	2cc\	re-
1D	-o-	2F/	re-	2b\	-miſ-
.	.	2F/	-miſ-	2a\	-si-
=153-	=153-	=153-	=153-	=153-	=153-
!	!	!LO:N:vis=2	!	!	!
1C	-nem	1E	-si-	2cc\	-o-
.	.	.	.	2g/	-nem
2AA/	pec-	4F#X/	-o-	2a\	pec-
.	.	4F#/	-nem	.	.
2GG/	-ca-	4G/	pec-	2b\	-ca-
.	.	4G/	-ca-	.	.
=154-	=154-	=154-	=154-	=154-	=154-
1D	-to-	2G/	-to-	1a	-to-
.	.	2F#X/	-rum	.	.
2GG/	-rum	2G/	Et	2b\	-rum
2G\	Et	2B\	ex-	2dd\	Et
=155-	=155-	=155-	=155-	=155-	=155-
2E\	ex-	2c\	-pe-	2ee\	ex-
2F\	-pe-	2A\	-cto	2cc\	-pe-
!LO:LB:g=original	!	!LO:LB:g=original	!	!	!
2D\	-cto	2B\	re-	2dd\	-cto
2E\	re-	2G/	-ſur-	2b\	re-
=156-	=156-	=156-	=156-	=156-	=156-
2C/	-ſur-	2A/	-rec-	2cc\	-ſur-
1D	-rec-	1F#X	-ti-	1a	-rec-
2BB/	-ti-	2G/	-o-	2b\	-ti-
=157-	=157-	=157-	=157-	=157-	=157-
2C/	-o-	2E/	-nem	2g/	-o-
2AA/	-nem	2e\	Mor-	2cc\	-nem
2D\	Mor-	2d\	-tu-	4b\	Mor-
.	.	.	.	4a\	.
2F\	-tu-	2A/	-o-	1a\	-tu-
=158-	=158-	=158-	=158-	=158-	=158-
1E	-o-	1B	.	.	.
!	!	!	!	!LO:TX:b:t=P:problem:# below	!
.	.	.	.	2g#X/	-o-
!	!	!	!	!LO:LB:g=original	!
1AA	-rum	0A	-rum	1a	-rum
=159-	=159-	=159-	=159-	=159-	=159-
2rBB	.	.	.	2r	.
2D/	Et	.	.	2dd\	Et
2BB/	Vi-	0r	.	2gny/	Vi-
4BB/	-tam	.	.	4g/	-tam
4BB/	Ven-	.	.	4g/	Ven-
=160-	=160-	=160-	=160-	=160-	=160-
2C/	-tu-	.	.	2a\	-tu-
2GG/	-ri	.	.	2b\	-ri
2.AA/	Sae-	2r	.	2.cc\	Sae-
.	.	2c\	A-	.	.
4AA/	-cu-	.	.	4cc\	-cu-
=161-	=161-	=161-	=161-	=161-	=161-
2GG/	-li	2d\	.	1b	-li
2G\	A-	2.e\	.	.	.
2.A\	.	.	.	0r	.
.	.	4d\	.	.	.
.	.	4c\	.	.	.
4G\	.	4B\	.	.	.
=162-	=162-	=162-	=162-	=162-	=162-
4F\	.	2A\	.	.	.
4E\	.	.	.	.	.
2F\	.	1c	.	.	.
1G	.	.	.	2dd\	A-
.	.	2B\	.	2.ee\	.
=163-	=163-	=163-	=163-	=163-	=163-
1C	-men	2c\	-men	.	.
.	.	.	.	4dd\	.
*	*	*	*ij	*	*
.	.	2e\	A-	4cc\	.
.	.	.	.	4b\	.
!LO:LB:g=original	!	!	!	!	!
2r	.	2A/	.	1a	.
2D\	A-	4d\	.	.	.
.	.	4c\	.	.	.
=164-	=164-	=164-	=164-	=164-	=164-
2.E\	.	4B\	.	1g	men
.	.	4A\	.	.	.
.	.	2B\	.	.	.
4D/	.	.	.	.	.
!	!	!LO:LB:g=original	!	!	!
4C/	.	2.c\	.	2r	.
4BB/	.	.	.	.	.
2C/	.	.	.	2g/	A-
.	.	4B\	.	.	.
=165-	=165-	=165-	=165-	=165-	=165-
*lig	*	*	*	*	*
1D	.	1A	.	2.dd\	.
.	.	.	.	4cc\	.
1E	.	1G	-men	4b\	.
.	.	.	.	4a\	.
.	.	.	.	2b\	.
*Xlig	*	*	*	*	*
=166-	=166-	=166-	=166-	=166-	=166-
!LO:TX:t=P:problem:brak taktu nr 166 [niezgodność pionów]	!	!	!	!	!
0ryy	.	2G/	A-	2cc\	-men
*	*	*	*	*	*ij
.	.	2c\	.	2ee\	A-
!	!	!	!	!LO:LB:g=original	!
.	.	4B\	.	2.dd\	.
.	.	4A\	.	.	.
.	.	1A\	.	.	.
.	.	.	.	4cc\	.
=167-	=167-	=167-	=167-	=167-	=167-
!LO:TX:t=P:problem:brak połowy taktu nr 167 [niezgodność pionów]	!	!	!	!	!
1ryy	.	.	.	4b\	.
.	.	.	.	4a\	.
.	.	2G#X/	.	2b\	.
1AA	men	1A	-men	1cc	.
=168-	=168-	=168-	=168-	=168-	=168-
*	*ij	*	*	*	*
1D	A-	2A/	A-	1dd	-men
.	.	2.d\	.	.	.
1GG	-men	.	.	2b-X\	A-
.	.	4c\	.	.	.
.	.	4B-X\	.	2.dd\	.
.	.	4A\	.	.	.
=169-	=169-	=169-	=169-	=169-	=169-
1.G	A-	2Gny/	-men	.	.
.	.	.	.	4cc\	.
.	.	2.d\	A-	4b-X\	.
.	.	.	.	4a\	.
.	.	.	.	2g/	.
.	.	4c\	.	.	.
2F#X\	.	4B-X\	.	1a\	-men
.	.	4A\	.	.	.
=170-	=170-	=170-	=170-	=170-	=170-
0G	.	1B-X	men	.	.
.	.	.	.	4g/	A-
.	.	.	.	4f/	.
.	.	2B-\	A-	1.g	.
.	.	1B-\	-men	.	.
=171-	=171-	=171-	=171-	=171-	=171-
0Dl	-men	.	.	.	.
.	.	4A/	A-	4f#X/	.
.	.	4G/	.	4e/	.
.	.	1Al	-men	1f#Xl	-men
*	*Xij	*	*Xij	*	*Xij
==	==	==	==	==	==
*-	*-	*-	*-	*-	*-
!!!system-decoration: [(s1,s2,s3)]
!!!RDF**kern: > = above
!!!RDF**kern: < = below
!!!RDF**kern: l = terminal long
!!!ENC: Andrzej Kubiczek
!!!END: 2021-07-18
!!!ENC: Andrzej Kubiczek
!!!END: 2021-07-17
